X: 3
T: The Pretty Girls Of Mayo
R: reel
M: 4/4
L: 1/8
K: Gmaj
|:DG G2 A2 de|fdge fdcA|DG G2 A2de| fdcA AGFA|
DG G2 A2 de|fdge fdcA|DG G2 A2de|fdcA AGBd||
|:g2 ag fddc|ABcA dBcA|g2 ag fdde|fdcA AG G2|
g3e fdde|fdge fdd^c|defg abag|fdcA BGAF||


Tune 1954	Setting 1954

